svg/开启新对话.svg

<svg width="24" height="24" viewBox="0 0 24 24" fill="none" xmlns="http://www.w3.org/2000/svg">
<rect width="24" height="24" fill="#F5F5F5"/>
<rect x="-228" y="-194" width="953" height="913" rx="16" fill="white"/>
<path d="M12 2C17.5228 2 22 6.47715 22 12C22 17.5228 17.5228 22 12 22C6.47715 22 2 17.5228 2 12C2 6.47715 6.47715 2 12 2ZM12 3.2002C7.13989 3.2002 3.2002 7.13989 3.2002 12C3.2002 16.8601 7.13989 20.7998 12 20.7998C16.8601 20.7998 20.7998 16.8601 20.7998 12C20.7998 7.13989 16.8601 3.2002 12 3.2002ZM12.5996 11.4004H17V12.5996H12.5996V17H11.4004V12.5996H7V11.4004H11.4004V7H12.5996V11.4004Z" fill="black" fill-opacity="0.9"/>
</svg>

<svg fill="none" viewBox="0 0 24 24"><path fill="#F5F5F5" d="M0 0h24v24H0z"/><rect width="953" height="913" x="-228" y="-194" fill="white" rx="16"/><path fill="black" fillOpacity=".9" d="M12 2c5.523 0 10 4.477 10 10s-4.477 10-10 10S2 17.523 2 12 6.477 2 12 2m0 1.2A8.8 8.8 0 0 0 3.2 12a8.8 8.8 0 0 0 8.8 8.8 8.8 8.8 0 0 0 8.8-8.8A8.8 8.8 0 0 0 12 3.2m.6 8.2H17v1.2h-4.4V17h-1.2v-4.4H7v-1.2h4.4V7h1.2z"/></svg>
